static/assets/template/assets/img/icons/essential/detailed/Milk.svg

<svg height="145" viewBox="0 0 148 145" width="148" xmlns="http://www.w3.org/2000/svg"><g fill="none" fill-rule="evenodd"><g stroke-linecap="round" stroke-linejoin="round" stroke-width="3" transform="translate(2 142)"><path d="m1.6.6h-1.4"/><path d="m39.6.6h-32.7"/><path d="m46.7.6h-1.3"/><path d="m131.9.6h-78"/><path d="m138.2.6h-2.1"/><path d="m144.4.6h-.4"/></g><g transform="translate(39 1)"><path d="m73 29.4-8.3-11.9-.1-10.6c0-3.3-2.7-6-6-6h-41.3c-3.3 0-6 2.7-6 6v10.6c-3.7 5.7-2.1 3.2-7 10.9-1.1 1.7-3.7 5.3-3.7 11v98.7c0 2.2 1.8 3.9 3.9 3.9h67.7c2.2 0 3.9-1.8 3.9-3.9v-98.3c.2-3.8-1-7.4-3.1-10.4z" fill-rule="nonzero"/><path d="m76.3 39.3v98.9c0 2.1-1.8 3.8-3.9 3.8h-64.5c-2.2 0-3.9-1.7-3.9-3.8v-95.2c0-5.5 2.6-8.9 3.7-10.5 4.9-7.3 3.3-5 7-10.4v-10.1c0-3.1 2.7-5.7 6-5.7h38.1c3.3 0 6 2.5 6 5.7l.1 5.4v.6l.3.4 8 10.9c1.9 3 3.1 6.5 3.1 10z" fill-rule="nonzero"/><ellipse cx="25.7" cy="93.5" fill="#bad8ff" fill-rule="nonzero" rx="17.5" ry="22"/><path d="m76.3 39.3v98.9c0 2.1-1.8 3.8-3.9 3.8h-19.4v-102.5c0-3.5 1.1-6.9 3.1-9.7l8.7-12.3v.6l.3.4 8 10.9c2 2.9 3.2 6.4 3.2 9.9z" fill="#bad8ff" fill-rule="nonzero"/><path d="m76.3 39.3v98.9c0 2.1-1.8 3.8-3.9 3.8h-17.6l8.8-9.9c1-1.1 1.6-2.6 1.5-4.1l-.9-100.8c0-.3 0-.7.1-1l.8-7.6 8 10.9c2 2.8 3.2 6.3 3.2 9.8z" fill="#abcfff" fill-rule="nonzero"/><g stroke-linecap="round" stroke-linejoin="round" stroke-width="3"><path d="m58.7.9h-41.3c-3.3 0-6 2.7-6 6v10.6l53.3.1-.1-10.6c0-3.5-2.6-6.1-5.9-6.1z"/><path d="m53 142h19.3c2.2 0 3.9-1.8 3.9-3.9v-98.3c0-3.7-1.1-7.3-3.3-10.4l-8.3-11.9-53.3-.1"/><path d="m7.8 22.9-4.3 6.7c-1.9 2.9-2.9 6.3-2.9 9.8v98.7c0 2.2 1.8 3.9 3.9 3.9h42.4"/><path d="m52.9 124.5v.6"/><path d="m52.9 107.2v10.9"/><path d="m64.7 17.5-8.7 12.3c-2 2.9-3.1 6.3-3.1 9.7v22.5"/><path d="m17.6.9v3.9"/><path d="m24.5.9v3.9"/><path d="m31.4.9v3.9"/><path d="m38.2.9v3.9"/><path d="m45.1.9v3.9"/><path d="m52 .9v3.9"/><path d="m58.9.9v3.9"/><path d="m.5 0h62.7" transform="translate(1 34)"/></g></g></g></svg>

<?xml version="1.0" encoding="UTF-8"?>
<svg width="148px" height="145px" viewBox="0 0 148 145" version="1.1" xmlns="http://www.w3.org/2000/svg" xmlns:xlink="http://www.w3.org/1999/xlink">
    <!-- Generator: Sketch 51.2 (57519) - http://www.bohemiancoding.com/sketch -->
    <title>Milk</title>
    <desc>Created with Sketch.</desc>
    <defs></defs>
    <g id="Page-1" stroke="none" stroke-width="1" fill="none" fill-rule="evenodd">
        <g id="Milk" transform="translate(2.000000, 1.000000)">
            <g id="Group" transform="translate(0.000000, 141.000000)" class="stroke-primary-300" stroke-linecap="round" stroke-linejoin="round" stroke-width="3">
                <path d="M1.6,0.6 L0.2,0.6" id="Shape"></path>
                <path d="M39.6,0.6 L6.9,0.6" id="Shape"></path>
                <path d="M46.7,0.6 L45.4,0.6" id="Shape"></path>
                <path d="M131.9,0.6 L53.9,0.6" id="Shape"></path>
                <path d="M138.2,0.6 L136.1,0.6" id="Shape"></path>
                <path d="M144.4,0.6 L144,0.6" id="Shape"></path>
            </g>
            <g id="Group" transform="translate(37.000000, 0.000000)">
                <path d="M73,29.4 L64.7,17.5 L64.6,6.9 C64.6,3.6 61.9,0.9 58.6,0.9 L17.3,0.9 C14,0.9 11.3,3.6 11.3,6.9 L11.3,17.5 C7.6,23.2 9.2,20.7 4.3,28.4 C3.2,30.1 0.6,33.7 0.6,39.4 L0.6,138.1 C0.6,140.3 2.4,142 4.5,142 C7.8,142 68.4,142 72.2,142 C74.4,142 76.1,140.2 76.1,138.1 L76.1,39.8 C76.3,36 75.1,32.4 73,29.4 Z" id="Shape" class="fill-neutral" fill-rule="nonzero"></path>
                <path d="M76.3,39.3 L76.3,138.2 C76.3,140.3 74.5,142 72.4,142 L7.9,142 C5.7,142 4,140.3 4,138.2 L4,43 C4,37.5 6.6,34.1 7.7,32.5 C12.6,25.2 11,27.5 14.7,22.1 L14.7,12 C14.7,8.9 17.4,6.3 20.7,6.3 L58.8,6.3 C62.1,6.3 64.8,8.8 64.8,12 L64.9,17.4 L64.9,18 L65.2,18.4 L73.2,29.3 C75.1,32.3 76.3,35.8 76.3,39.3 Z" id="Shape" class="fill-primary-100" fill-rule="nonzero"></path>
                <ellipse id="Oval" fill="#BAD8FF" fill-rule="nonzero" cx="25.7" cy="93.5" rx="17.5" ry="22"></ellipse>
                <path d="M76.3,39.3 L76.3,138.2 C76.3,140.3 74.5,142 72.4,142 L53,142 L53,39.5 C53,36 54.1,32.6 56.1,29.8 L64.8,17.5 L64.8,18.1 L65.1,18.5 L73.1,29.4 C75.1,32.3 76.3,35.8 76.3,39.3 Z" id="Shape" fill="#BAD8FF" fill-rule="nonzero"></path>
                <path d="M76.3,39.3 L76.3,138.2 C76.3,140.3 74.5,142 72.4,142 L54.8,142 L63.6,132.1 C64.6,131 65.2,129.5 65.1,128 L64.2,27.2 C64.2,26.9 64.2,26.5 64.3,26.2 L65.1,18.6 L73.1,29.5 C75.1,32.3 76.3,35.8 76.3,39.3 Z" id="Shape" fill="#ABCFFF" fill-rule="nonzero"></path>
                <path d="M58.7,0.9 L17.4,0.9 C14.1,0.9 11.4,3.6 11.4,6.9 L11.4,17.5 L64.7,17.6 L64.6,7 C64.6,3.5 62,0.9 58.7,0.9 Z" id="Shape" class="stroke-primary" stroke-width="3" stroke-linecap="round" stroke-linejoin="round"></path>
                <path d="M53,142 L72.3,142 C74.5,142 76.2,140.2 76.2,138.1 L76.2,39.8 C76.2,36.1 75.1,32.5 72.9,29.4 L64.6,17.5 L11.3,17.4" id="Shape" class="stroke-primary" stroke-width="3" stroke-linecap="round" stroke-linejoin="round"></path>
                <path d="M7.8,22.9 L3.5,29.6 C1.6,32.5 0.6,35.9 0.6,39.4 L0.6,138.1 C0.6,140.3 2.4,142 4.5,142 L46.9,142" id="Shape" class="stroke-primary" stroke-width="3" stroke-linecap="round" stroke-linejoin="round"></path>
                <path d="M52.9,124.5 L52.9,125.1" id="Shape" class="stroke-primary" stroke-width="3" stroke-linecap="round" stroke-linejoin="round"></path>
                <path d="M52.9,107.2 L52.9,118.1" id="Shape" class="stroke-primary" stroke-width="3" stroke-linecap="round" stroke-linejoin="round"></path>
                <path d="M64.7,17.5 L56,29.8 C54,32.7 52.9,36.1 52.9,39.5 L52.9,62" id="Shape" class="stroke-primary" stroke-width="3" stroke-linecap="round" stroke-linejoin="round"></path>
                <path d="M17.6,0.9 L17.6,4.8" id="Shape" class="stroke-primary" stroke-width="3" stroke-linecap="round" stroke-linejoin="round"></path>
                <path d="M24.5,0.9 L24.5,4.8" id="Shape" class="stroke-primary" stroke-width="3" stroke-linecap="round" stroke-linejoin="round"></path>
                <path d="M31.4,0.9 L31.4,4.8" id="Shape" class="stroke-primary" stroke-width="3" stroke-linecap="round" stroke-linejoin="round"></path>
                <path d="M38.2,0.9 L38.2,4.8" id="Shape" class="stroke-primary" stroke-width="3" stroke-linecap="round" stroke-linejoin="round"></path>
                <path d="M45.1,0.9 L45.1,4.8" id="Shape" class="stroke-primary" stroke-width="3" stroke-linecap="round" stroke-linejoin="round"></path>
                <path d="M52,0.9 L52,4.8" id="Shape" class="stroke-primary" stroke-width="3" stroke-linecap="round" stroke-linejoin="round"></path>
                <path d="M58.9,0.9 L58.9,4.8" id="Shape" class="stroke-primary" stroke-width="3" stroke-linecap="round" stroke-linejoin="round"></path>
                <g transform="translate(1.000000, 34.000000)" id="Shape" class="stroke-primary" stroke-linecap="round" stroke-linejoin="round" stroke-width="3">
                    <path d="M0.5,0 L63.2,0"></path>
                </g>
            </g>
        </g>
    </g>
</svg>
